svgs/duotone/truck-medical.svg

<svg xmlns="http://www.w3.org/2000/svg" viewBox="0 0 640 512"><!--! Font Awesome Pro 6.4.0 by @fontawesome - https://fontawesome.com License - https://fontawesome.com/license (Commercial License) Copyright 2023 Fonticons, Inc. --><defs><style>.fa-secondary{opacity:.4}</style></defs><path class="fa-primary" d="M0 48C0 21.5 21.5 0 48 0H368c26.5 0 48 21.5 48 48V96h50.7c17 0 33.3 6.7 45.3 18.7L589.3 192c12 12 18.7 28.3 18.7 45.3V256v32 64c17.7 0 32 14.3 32 32s-14.3 32-32 32H576h-1.1c-7.8-54.3-54.4-96-110.9-96s-103.1 41.7-110.9 96H286.9c-7.8-54.3-54.4-96-110.9-96s-103.1 41.7-110.9 96H48c-26.5 0-48-21.5-48-48V48zM416 256H544V237.3L466.7 160H416v96zM176 80v48l-48 0c-8.8 0-16 7.2-16 16v32c0 8.8 7.2 16 16 16h48v48c0 8.8 7.2 16 16 16h32c8.8 0 16-7.2 16-16V192h48c8.8 0 16-7.2 16-16V144c0-8.8-7.2-16-16-16H240V80c0-8.8-7.2-16-16-16H192c-8.8 0-16 7.2-16 16z"/><path class="fa-secondary" d="M176 80c0-8.8 7.2-16 16-16h32c8.8 0 16 7.2 16 16v48l48 0c8.8 0 16 7.2 16 16v32c0 8.8-7.2 16-16 16H240v48c0 8.8-7.2 16-16 16H192c-8.8 0-16-7.2-16-16V192H128c-8.8 0-16-7.2-16-16V144c0-8.8 7.2-16 16-16l48 0V80zM96 432a80 80 0 1 1 160 0A80 80 0 1 1 96 432zm288 0a80 80 0 1 1 160 0 80 80 0 1 1 -160 0z"/></svg>

<svg xmlns="http://www.w3.org/2000/svg" viewBox="0 0 640 512"><!--! Font Awesome Pro 6.3.0 by @fontawesome - https://fontawesome.com License - https://fontawesome.com/license (Commercial License) Copyright 2023 Fonticons, Inc. --><defs><style>.fa-secondary{opacity:.4}</style></defs><path class="fa-primary" d="M.0003 48C.0003 21.49 21.49 0 48 0H368C394.5 0 416 21.49 416 48V96H466.7C483.7 96 499.1 102.7 512 114.7L589.3 192C601.3 204 608 220.3 608 237.3V352C625.7 352 640 366.3 640 384C640 401.7 625.7 416 608 416H574.9C567.1 361.7 520.4 320 464 320C407.6 320 360.9 361.7 353.1 416H286.9C279.1 361.7 232.4 320 176 320C119.6 320 72.9 361.7 65.13 416H48C21.49 416 0 394.5 0 368L.0003 48zM544 256V237.3L466.7 160H416V256H544zM192 64C183.2 64 176 71.16 176 80V128H128C119.2 128 112 135.2 112 144V176C112 184.8 119.2 192 128 192H176V240C176 248.8 183.2 256 192 256H224C232.8 256 240 248.8 240 240V192H288C296.8 192 304 184.8 304 176V144C304 135.2 296.8 128 288 128H240V80C240 71.16 232.8 64 224 64H192z"/><path class="fa-secondary" d="M224 64C232.8 64 240 71.16 240 80V128H288C296.8 128 304 135.2 304 144V176C304 184.8 296.8 192 288 192H240V240C240 248.8 232.8 256 224 256H192C183.2 256 176 248.8 176 240V192H128C119.2 192 112 184.8 112 176V144C112 135.2 119.2 128 128 128H176V80C176 71.16 183.2 64 192 64H224zM256 432C256 476.2 220.2 512 176 512C131.8 512 96 476.2 96 432C96 387.8 131.8 352 176 352C220.2 352 256 387.8 256 432zM544 432C544 476.2 508.2 512 464 512C419.8 512 384 476.2 384 432C384 387.8 419.8 352 464 352C508.2 352 544 387.8 544 432z"/></svg>
